src/assets/images/podcast/youtube.svg

<svg width="59" height="40" viewBox="0 0 59 40" fill="none" xmlns="http://www.w3.org/2000/svg">
<path d="M57.2646 6.25882C56.6004 3.81176 54.6553 1.88235 52.1883 1.22353C47.6812 0 29.6531 0 29.6531 0C29.6531 0 11.6249 0 7.11788 1.17647C4.69831 1.83529 2.70573 3.81176 2.04153 6.25882C0.855469 10.7294 0.855469 20 0.855469 20C0.855469 20 0.855469 29.3176 2.04153 33.7412C2.70573 36.1882 4.65087 38.1176 7.11788 38.7765C11.6724 40 29.6531 40 29.6531 40C29.6531 40 47.6812 40 52.1883 38.8235C54.6553 38.1647 56.6004 36.2353 57.2646 33.7882C58.4507 29.3176 58.4507 20.0471 58.4507 20.0471C58.4507 20.0471 58.4981 10.7294 57.2646 6.25882Z" fill="#FF0000"/>
<path d="M23.9121 11.4355V28.565L38.9039 20.0003L23.9121 11.4355Z" fill="white"/>
</svg>

<svg width="59" height="40" fill="none" xmlns="http://www.w3.org/2000/svg"><path d="M57.265 6.259a7.187 7.187 0 00-5.077-5.035C47.681 0 29.653 0 29.653 0S11.625 0 7.118 1.176c-2.42.66-4.412 2.636-5.076 5.083C.855 10.729.855 20 .855 20s0 9.318 1.187 13.741a7.188 7.188 0 005.076 5.035C11.672 40 29.653 40 29.653 40s18.028 0 22.535-1.176a7.187 7.187 0 005.077-5.036c1.186-4.47 1.186-13.74 1.186-13.74s.047-9.319-1.186-13.79z" fill="red"/><path d="M23.912 11.435v17.13L38.904 20l-14.992-8.565z" fill="#fff"/></svg>
